X: 1
T:los Diziou Be Pierou
R:Bourr\'ee
M:3/8
O:France
K:C
c2|\
d2g4 | d4g2 | agf2e2| d2e2c2 |\
d2g4 | d4g2| agf2e2| d4:|
|:f2|\
e2d4| G4c2| Bcd2f2| e2d2f2|\
e2d4| G4c2| G4c2| Bcd2B2| c4:|
